packages/foundations/assets/icons/functional/images/human/shower_women_16.svg

<svg width="16" height="16" viewBox="0 0 16 16" fill="none" xmlns="http://www.w3.org/2000/svg">
<g clip-path="url(#clip0_185_1196)">
<path fill-rule="evenodd" clip-rule="evenodd" d="M6.80013 11.2004C7.52826 11.2004 8.08091 11.7172 8.32566 12.3373L8.78118 13.4269C8.87702 13.8582 8.60504 14.2856 8.17367 14.3815C7.74231 14.4773 7.36911 14.1281 7.21907 13.7739L6.78696 12.8005H3.60013L3.18104 13.7745C2.99595 14.1817 2.65727 14.4775 2.22598 14.3813C1.79469 14.2851 1.52303 13.8575 1.61921 13.4263L2.06208 12.3501C2.25532 11.8123 2.8292 11.2004 3.60013 11.2004H6.80013ZM5.21742 5.40045C6.43213 5.40045 7.40013 6.3684 7.40008 7.5831C7.40792 8.79741 6.43171 9.78911 5.21742 9.8004C3.99636 9.79195 3.00858 8.80417 3.00013 7.5831C3.01147 6.36884 4.00314 5.39267 5.21742 5.40045ZM11.9846 8.45398C12.0592 8.77671 11.858 9.09889 11.5352 9.17332C11.2124 9.24774 10.8903 9.0465 10.8157 8.72363C10.741 8.40077 10.9422 8.07872 11.265 8.0043C11.5878 7.92974 11.9099 8.13112 11.9846 8.45398ZM14.3186 7.89899C14.4852 8.18542 14.3883 8.55259 14.1021 8.71913C13.8158 8.88554 13.4486 8.78824 13.2818 8.50181C13.115 8.21525 13.2118 7.84808 13.4981 7.68167C13.7844 7.51527 14.1518 7.61257 14.3186 7.89899ZM9.30146 7.68078C9.58801 7.84756 9.6853 8.21482 9.51877 8.50102C9.35223 8.78735 8.98508 8.8843 8.69866 8.71751C8.41225 8.55072 8.31495 8.18346 8.48149 7.89713C8.64789 7.61094 9.01504 7.51399 9.30146 7.68078ZM11.9845 6.60699C12.0593 6.92986 11.8581 7.2519 11.5353 7.32632C11.2125 7.40088 10.8903 7.1995 10.8157 6.87664C10.741 6.55391 10.9422 6.23186 11.2651 6.1573C11.5879 6.08288 11.91 6.28426 11.9845 6.60699ZM9.90154 5.88203C10.188 6.04881 10.2853 6.41606 10.1189 6.70239C9.95231 6.98871 9.58514 7.08552 9.29871 6.91874C9.01229 6.75209 8.91499 6.38471 9.0814 6.09852C9.24781 5.8122 9.61511 5.71525 9.90154 5.88203ZM13.7185 6.09895C13.8853 6.38538 13.7883 6.75255 13.5021 6.9191C13.2158 7.08551 12.8485 6.98835 12.6818 6.70178C12.515 6.41535 12.6119 6.04818 12.8981 5.88177C13.1844 5.71522 13.5517 5.81253 13.7185 6.09895ZM11.4001 1.6004C11.8104 1.6004 12.2 1.94328 12.2 2.4004V3.4596L12.5311 3.50026L13.3161 3.60886C13.7533 3.67293 14.0557 4.07925 13.9917 4.51641C13.9276 4.95357 13.5213 5.25602 13.0841 5.19195L12.0715 5.05599C11.8451 5.01893 11.6204 5.0004 11.3975 5.0004C11.2489 5.0004 11.1003 5.00864 10.9517 5.02511L9.71614 5.19195C9.27898 5.25602 8.87265 4.95357 8.80858 4.51641C8.74451 4.07925 9.04696 3.67293 9.48412 3.60886L10.2692 3.50026L10.6 3.4612L10.6001 2.4004C10.6001 1.95858 10.9583 1.6004 11.4001 1.6004Z" fill="#1A1C1F"/>
</g>
<defs>
<clipPath id="clip0_185_1196">
<rect width="16" height="16" fill="white"/>
</clipPath>
</defs>
</svg>

<svg xmlns="http://www.w3.org/2000/svg" width="16" height="16" fill="none"><g clip-path="url(#a)"><path fill="#1A1C1F" fill-rule="evenodd" d="M6.8 11.2c.728 0 1.28.517 1.526 1.137l.455 1.09a.8.8 0 0 1-.607.955c-.432.095-.805-.254-.955-.608l-.432-.973H3.6l-.419.973c-.185.408-.524.704-.955.607a.8.8 0 0 1-.607-.955l.443-1.076c.193-.538.767-1.15 1.538-1.15zM5.217 5.4A2.17 2.17 0 0 1 7.4 7.583 2.203 2.203 0 0 1 5.217 9.8 2.233 2.233 0 0 1 3 7.583 2.203 2.203 0 0 1 5.217 5.4m6.768 3.054a.6.6 0 1 1-1.169.27.6.6 0 0 1 1.169-.27m2.334-.555a.6.6 0 1 1-1.037.604.6.6 0 0 1 1.037-.604M9.3 7.681a.6.6 0 1 1-.603 1.037.6.6 0 0 1 .603-1.037m2.684-1.074a.6.6 0 1 1-1.168.27.6.6 0 0 1 1.168-.27m-2.083-.725a.6.6 0 1 1-.604 1.038.6.6 0 0 1 .604-1.038m3.817.217a.6.6 0 1 1-1.037.604.6.6 0 0 1 1.037-.604M11.4 1.6c.41 0 .8.343.8.8v1.06l.331.04.785.109a.8.8 0 0 1-.232 1.583l-1.012-.136a4.2 4.2 0 0 0-1.12-.03l-1.236.166a.8.8 0 0 1-.232-1.583l.785-.109.331-.039v-1.06a.8.8 0 0 1 .8-.8" clip-rule="evenodd"/></g><defs><clipPath id="a"><path fill="#fff" d="M0 0h16v16H0z"/></clipPath></defs></svg>
